X:481
T:Way Downtown
C:Tony Rice - Tony Rice
N:mandolin: David Grisman - Transcribed by Philippe Colleu
R:bluegrass
L:1/8
Q:1/4=250
M:4/4
K:C
"D7"z2 ^f=f ed BA | "G"B2 BA Bd BA | eB Bd zB (3dBA | "D"^FB AF ED FD | E^F EF zF zE | 
"A"E/^F/E B,^C z[EC] zC | ^CC CA dB zd | "D"BA dB zd BA | "D7"de ^fa zA df | "G"zd Bd zD GB | 
zG ED GD ED | "D"^F2 FD EF zG | z^F zE zF ED | "A"Ez B,^C EC CC | ^CC CE ^FA FE | 
"D"DE ^FB AB dB | "D7"Ad BA dB Ad | "G"B2 B6 | 


